X:514
T:Jock Stewart
S:Tannahill Weavers LP, memory
Z:Nigel Gatherer
M:3/4
L:1/8
K:G
GA | B2 d2 B2 | A6- | A2 z2 
GA | B2 g2 f2 | e6- | e2 z2
gg | g3 d B2 | A2 G2 A2 | B6 | A2 z2
GA | B2 d2 B2 | A6- | A2 z2 
GA | B2 g2 f2 | e6- | e2 z2
gg | g3 d B2 | A2 G2 A2 | G6 | G2 |]
<end>
<start>
